flaticon/outdoor/matches.svg

<svg xmlns="http://www.w3.org/2000/svg" width="32" height="32" viewBox="0 0 24 24">
    <path d="M 18.800781 4.199219 L 18.800781 3.800781 L 0 3.800781 L 0 20.199219 L 18.800781 20.199219 L 18.800781 19.800781 L 24 19.800781 L 24 4.199219 Z M 0.800781 4.601562 L 18 4.601562 L 18 15.398438 L 0.800781 15.398438 Z M 13.199219 19.398438 L 0.800781 19.398438 L 0.800781 16.199219 L 18 16.199219 C 17.777344 16.199219 17.601562 16.378906 17.601562 16.601562 C 17.601562 16.820312 17.777344 17 18 17 L 18 18.601562 C 17.777344 18.601562 17.601562 18.777344 17.601562 19 C 17.601562 19.222656 17.777344 19.398438 18 19.398438 Z M 23.199219 19 L 18.800781 19 L 18.800781 16.199219 L 23.199219 16.199219 Z M 18.800781 15.398438 L 18.800781 13.800781 L 19.273438 13.800781 C 19.546875 14.535156 20.519531 15 21.199219 15 C 22.082031 15 22.800781 14.28125 22.800781 13.398438 C 22.800781 12.519531 22.082031 11.800781 21.199219 11.800781 C 20.519531 11.800781 19.546875 12.265625 19.273438 13 L 18.800781 13 L 18.800781 10.601562 L 19.273438 10.601562 C 19.546875 11.335938 20.519531 11.800781 21.199219 11.800781 C 22.082031 11.800781 22.800781 11.082031 22.800781 10.199219 C 22.800781 9.316406 22.082031 8.601562 21.199219 8.601562 C 20.519531 8.601562 19.546875 9.066406 19.273438 9.800781 L 18.800781 9.800781 L 18.800781 7.398438 L 19.273438 7.398438 C 19.546875 8.132812 20.519531 8.601562 21.199219 8.601562 C 22.082031 8.601562 22.800781 7.882812 22.800781 7 C 22.800781 6.117188 22.082031 5.398438 21.199219 5.398438 C 20.519531 5.398438 19.546875 5.867188 19.273438 6.601562 L 18.800781 6.601562 L 18.800781 5 L 23.199219 5 L 23.199219 15.398438 Z M 20 13.398438 C 20 13.011719 20.703125 12.601562 21.199219 12.601562 C 21.640625 12.601562 22 12.957031 22 13.398438 C 22 13.839844 21.640625 14.199219 21.199219 14.199219 C 20.703125 14.199219 20 13.785156 20 13.398438 Z M 20 10.199219 C 20 9.8125 20.703125 9.398438 21.199219 9.398438 C 21.640625 9.398438 22 9.757812 22 10.199219 C 22 10.640625 21.640625 11 21.199219 11 C 20.703125 11 20 10.585938 20 10.199219 Z M 20 7 C 20 6.613281 20.703125 6.199219 21.199219 6.199219 C 21.640625 6.199219 22 6.558594 22 7 C 22 7.441406 21.640625 7.800781 21.199219 7.800781 C 20.703125 7.800781 20 7.386719 20 7 Z M 20 7"/>
    <path d="M1.601562 16.601562C1.601562 16.820312 1.421875 17 1.199219 17 .980469 17 .800781 16.820312.800781 16.601562.800781 16.378906.980469 16.199219 1.199219 16.199219 1.421875 16.199219 1.601562 16.378906 1.601562 16.601562zM4 16.601562C4 16.820312 3.820312 17 3.601562 17 3.378906 17 3.199219 16.820312 3.199219 16.601562 3.199219 16.378906 3.378906 16.199219 3.601562 16.199219 3.820312 16.199219 4 16.378906 4 16.601562zM1.601562 19C1.601562 19.222656 1.421875 19.398438 1.199219 19.398438.980469 19.398438.800781 19.222656.800781 19 .800781 18.777344.980469 18.601562 1.199219 18.601562 1.421875 18.601562 1.601562 18.777344 1.601562 19zM4 19C4 19.222656 3.820312 19.398438 3.601562 19.398438 3.378906 19.398438 3.199219 19.222656 3.199219 19 3.199219 18.777344 3.378906 18.601562 3.601562 18.601562 3.820312 18.601562 4 18.777344 4 19zM2.800781 17.800781C2.800781 18.019531 2.621094 18.199219 2.398438 18.199219 2.179688 18.199219 2 18.019531 2 17.800781 2 17.578125 2.179688 17.398438 2.398438 17.398438 2.621094 17.398438 2.800781 17.578125 2.800781 17.800781zM6.398438 16.601562C6.398438 16.820312 6.222656 17 6 17 5.777344 17 5.601562 16.820312 5.601562 16.601562 5.601562 16.378906 5.777344 16.199219 6 16.199219 6.222656 16.199219 6.398438 16.378906 6.398438 16.601562zM6.398438 19C6.398438 19.222656 6.222656 19.398438 6 19.398438 5.777344 19.398438 5.601562 19.222656 5.601562 19 5.601562 18.777344 5.777344 18.601562 6 18.601562 6.222656 18.601562 6.398438 18.777344 6.398438 19zM5.199219 17.800781C5.199219 18.019531 5.019531 18.199219 4.800781 18.199219 4.578125 18.199219 4.398438 18.019531 4.398438 17.800781 4.398438 17.578125 4.578125 17.398438 4.800781 17.398438 5.019531 17.398438 5.199219 17.578125 5.199219 17.800781zM7.601562 17.800781C7.601562 18.019531 7.421875 18.199219 7.199219 18.199219 6.980469 18.199219 6.800781 18.019531 6.800781 17.800781 6.800781 17.578125 6.980469 17.398438 7.199219 17.398438 7.421875 17.398438 7.601562 17.578125 7.601562 17.800781zM8.800781 16.601562C8.800781 16.820312 8.621094 17 8.398438 17 8.179688 17 8 16.820312 8 16.601562 8 16.378906 8.179688 16.199219 8.398438 16.199219 8.621094 16.199219 8.800781 16.378906 8.800781 16.601562zM11.199219 16.601562C11.199219 16.820312 11.019531 17 10.800781 17 10.578125 17 10.398438 16.820312 10.398438 16.601562 10.398438 16.378906 10.578125 16.199219 10.800781 16.199219 11.019531 16.199219 11.199219 16.378906 11.199219 16.601562zM8.800781 19C8.800781 19.222656 8.621094 19.398438 8.398438 19.398438 8.179688 19.398438 8 19.222656 8 19 8 18.777344 8.179688 18.601562 8.398438 18.601562 8.621094 18.601562 8.800781 18.777344 8.800781 19zM11.199219 19C11.199219 19.222656 11.019531 19.398438 10.800781 19.398438 10.578125 19.398438 10.398438 19.222656 10.398438 19 10.398438 18.777344 10.578125 18.601562 10.800781 18.601562 11.019531 18.601562 11.199219 18.777344 11.199219 19zM10 17.800781C10 18.019531 9.820312 18.199219 9.601562 18.199219 9.378906 18.199219 9.199219 18.019531 9.199219 17.800781 9.199219 17.578125 9.378906 17.398438 9.601562 17.398438 9.820312 17.398438 10 17.578125 10 17.800781zM13.601562 16.601562C13.601562 16.820312 13.421875 17 13.199219 17 12.980469 17 12.800781 16.820312 12.800781 16.601562 12.800781 16.378906 12.980469 16.199219 13.199219 16.199219 13.421875 16.199219 13.601562 16.378906 13.601562 16.601562zM13.601562 19C13.601562 19.222656 13.421875 19.398438 13.199219 19.398438 12.980469 19.398438 12.800781 19.222656 12.800781 19 12.800781 18.777344 12.980469 18.601562 13.199219 18.601562 13.421875 18.601562 13.601562 18.777344 13.601562 19zM12.398438 17.800781C12.398438 18.019531 12.222656 18.199219 12 18.199219 11.777344 18.199219 11.601562 18.019531 11.601562 17.800781 11.601562 17.578125 11.777344 17.398438 12 17.398438 12.222656 17.398438 12.398438 17.578125 12.398438 17.800781zM14.800781 17.800781C14.800781 18.019531 14.621094 18.199219 14.398438 18.199219 14.179688 18.199219 14 18.019531 14 17.800781 14 17.578125 14.179688 17.398438 14.398438 17.398438 14.621094 17.398438 14.800781 17.578125 14.800781 17.800781zM16 16.601562C16 16.820312 15.820312 17 15.601562 17 15.378906 17 15.199219 16.820312 15.199219 16.601562 15.199219 16.378906 15.378906 16.199219 15.601562 16.199219 15.820312 16.199219 16 16.378906 16 16.601562zM16 19C16 19.222656 15.820312 19.398438 15.601562 19.398438 15.378906 19.398438 15.199219 19.222656 15.199219 19 15.199219 18.777344 15.378906 18.601562 15.601562 18.601562 15.820312 18.601562 16 18.777344 16 19zM17.199219 17.800781C17.199219 18.019531 17.019531 18.199219 16.800781 18.199219 16.578125 18.199219 16.398438 18.019531 16.398438 17.800781 16.398438 17.578125 16.578125 17.398438 16.800781 17.398438 17.019531 17.398438 17.199219 17.578125 17.199219 17.800781zM11.429688 5.398438L2 5.398438 2 14.199219 16.800781 14.199219 16.800781 5.398438zM2.800781 13.398438L2.800781 6.199219 10.667969 6.199219 3.828125 13.398438zM4.929688 13.398438L11.773438 6.199219 13.867188 6.199219 7.027344 13.398438zM16 6.199219L16 13.398438 8.132812 13.398438 14.972656 6.199219zM16 6.199219"/>
</svg>

<svg xmlns="http://www.w3.org/2000/svg" width="32" height="32" viewBox="0 0 24 24">
    <path d="M18.8 4.2v-.4H0v16.4h18.8v-.4H24V4.2zm-18 .402H18v10.796H.8zm12.4 14.796H.8V16.2H18a.398.398 0 0 0-.398.403c0 .218.175.398.398.398v1.602a.395.395 0 0 0-.398.398c0 .223.175.398.398.398zm10-.398h-4.4v-2.8h4.4zm-4.4-3.602v-1.597h.473C19.547 14.535 20.52 15 21.2 15c.883 0 1.602-.719 1.602-1.602 0-.878-.719-1.597-1.602-1.597-.68 0-1.652.465-1.926 1.199h-.472v-2.398h.472c.274.734 1.247 1.199 1.926 1.199a1.6 1.6 0 0 0 0-3.2c-.68 0-1.652.465-1.926 1.2h-.472V7.398h.472c.274.735 1.247 1.204 1.926 1.204.883 0 1.602-.72 1.602-1.602 0-.883-.719-1.602-1.602-1.602-.68 0-1.652.47-1.926 1.204h-.472V5h4.398v10.398zm1.2-2c0-.386.703-.796 1.2-.796a.799.799 0 1 1 0 1.597c-.497 0-1.2-.414-1.2-.8zm0-3.199c0-.386.703-.8 1.2-.8a.802.802 0 0 1 0 1.601c-.497 0-1.2-.414-1.2-.8zM20 7c0-.387.703-.8 1.2-.8a.802.802 0 0 1 0 1.6c-.497 0-1.2-.413-1.2-.8zm0 0"/>
    <path d="M1.602 16.602a.401.401 0 1 1-.802-.005.401.401 0 0 1 .802.005zm0 0M4 16.602a.4.4 0 1 1-.8-.004.4.4 0 0 1 .8.004zm0 0M1.602 19c0 .223-.18.398-.403.398a.398.398 0 1 1 0-.796c.223 0 .403.175.403.398zm0 0M4 19c0 .223-.18.398-.398.398a.398.398 0 1 1 0-.796c.218 0 .398.175.398.398zm0 0M2.8 17.8A.401.401 0 1 1 2 17.797a.401.401 0 0 1 .802.005zm0 0M6.398 16.602a.398.398 0 1 1-.796 0 .398.398 0 1 1 .796 0zm0 0M6.398 19a.395.395 0 0 1-.398.398.395.395 0 0 1-.398-.398c0-.223.175-.398.398-.398.223 0 .398.175.398.398zm0 0M5.2 17.8a.4.4 0 1 1-.801-.003.4.4 0 0 1 .8.004zm0 0M7.602 17.8a.401.401 0 1 1-.802-.004.401.401 0 0 1 .802.005zm0 0M8.8 16.602A.401.401 0 1 1 8 16.597a.401.401 0 0 1 .802.005zm0 0M11.2 16.602a.4.4 0 1 1-.801-.004.4.4 0 0 1 .8.004zm0 0M8.8 19c0 .223-.179.398-.402.398a.398.398 0 1 1 0-.796c.223 0 .403.175.403.398zm0 0M11.2 19c0 .223-.18.398-.4.398a.398.398 0 1 1 0-.796c.22 0 .4.175.4.398zm0 0M10 17.8a.4.4 0 1 1-.8-.003.4.4 0 0 1 .8.004zm0 0M13.602 16.602a.401.401 0 1 1-.802-.005.401.401 0 0 1 .802.005zm0 0M13.602 19c0 .223-.18.398-.403.398a.398.398 0 1 1 0-.796c.223 0 .403.175.403.398zm0 0M12.398 17.8a.398.398 0 1 1-.796 0 .398.398 0 1 1 .796 0zm0 0M14.8 17.8a.401.401 0 1 1-.801-.004.401.401 0 0 1 .802.005zm0 0M16 16.602a.4.4 0 1 1-.8-.004.4.4 0 0 1 .8.004zm0 0M16 19c0 .223-.18.398-.398.398a.398.398 0 1 1 0-.796c.218 0 .398.175.398.398zm0 0M17.2 17.8a.4.4 0 1 1-.801-.003.4.4 0 0 1 .8.004zm0 0M11.43 5.398H2V14.2h14.8V5.4zm-8.63 8V6.2h7.868l-6.84 7.2zm2.13 0L11.773 6.2h2.094l-6.84 7.2zM16 6.2v7.2H8.133l6.84-7.2zm0 0"/>
</svg>
